!!!COM: rihanna
!!!OTL: where-have-you-been
!!!RNB: hooktheoryid: EzngRpOMoJj
**kern	**text
*clefG2	*
*k[b-e-a-]	*
*M4/4	*
=1	=1
8e-	Cmin7
16d	.
8.c	.
8B-	.
4c	.
4e-	.
=2	=2
8e-	Cmin7
16d	.
8.c	.
8B-	.
2c	.
=3	=3
8e-	Cmin7
16d	.
8.c	.
8B-	.
4c	.
4e-	.
=4	=4
8e-	Cmin7
16d	.
8.c	.
8B-	.
2c	.
=5	=5
8e-	Abmaj7
16d	.
8.c	.
8B-	.
4c	.
4e-	.
=6	=6
8e-	Abmaj7
16d	.
8.c	.
8B-	.
2c	.
=7	=7
8e-	Abmaj7
16d	.
8.c	.
8B-	.
2c	.
=8	=8
8e-	Abmaj7
16d	.
8.c	.
8B-	.
2c	.
=9	=9
1r	.
*-	*-